public/assets/img/Frame 11.svg

<svg width="316" height="12" viewBox="0 0 316 12" fill="none" xmlns="http://www.w3.org/2000/svg">
<path d="M314.354 6.35355C314.549 6.15829 314.549 5.84171 314.354 5.64645L311.172 2.46447C310.976 2.2692 310.66 2.2692 310.464 2.46447C310.269 2.65973 310.269 2.97631 310.464 3.17157L313.293 6L310.464 8.82843C310.269 9.02369 310.269 9.34027 310.464 9.53553C310.66 9.7308 310.976 9.7308 311.172 9.53553L314.354 6.35355ZM2 6.5H314V5.5H2V6.5Z" fill="black"/>
</svg>

<svg width="316" height="12" fill="none" xmlns="http://www.w3.org/2000/svg"><path d="M314.4 6.4c.1-.2.1-.6 0-.8l-3.2-3.1c-.2-.2-.5-.2-.7 0-.2.2-.2.5 0 .7l2.8 2.8-2.8 2.8c-.2.2-.2.5 0 .7.2.2.5.2.7 0l3.2-3.1zM2 6.5h312v-1H2v1z" fill="#000"/></svg>
